public/theme/boltcms-2021/img/logo.svg

<?xml version="1.0" encoding="UTF-8"?>
<svg width="1199px" height="256px" viewBox="0 0 1199 256" version="1.1" xmlns="http://www.w3.org/2000/svg"
     xmlns:xlink="http://www.w3.org/1999/xlink">
    <title>logo</title>
    <g id="Page-1" stroke="none" stroke-width="1" fill="none" fill-rule="evenodd">
        <g id="logo" transform="translate(3.000000, 2.000000)" stroke="#242F3C">
            <g id="Group" transform="translate(322.000000, 37.000000)" fill-rule="nonzero">
                <path d="m32.65446 28.85319v35.705567h39.770507c7.104528 0 12.872293-1.336657 17.303467-4.01001 4.431175-2.673353 6.646729-7.415738 6.646729-14.227295 0-7.543983-2.929658-12.524402-8.789063-14.941406-5.053736-1.684579-11.498984-2.526856-19.335937-2.526856zm0 62.512207v43.17627h39.770507c7.104528 0 12.634258-.952139 16.589356-2.856446 7.17777-3.515642 10.766601-10.253856 10.766601-20.214843 0-8.422894-3.478969-14.208969-10.437011-17.358399-3.881856-1.757821-9.338344-2.673339-16.369629-2.746582zm46.362304-90.637207c19.848732.29297 33.911092 6.042425 42.1875 17.248535 4.980494 6.8848 7.470703 15.124464 7.470703 24.719239 0 9.887744-2.490209 17.834442-7.470703 23.840332-2.783217 3.369157-6.884738 6.445298-12.304687 9.228515 8.276408 3.002945 14.520242 7.763639 18.731689 14.282227 4.211447 6.518587 6.317139 14.428664 6.317139 23.730469 0 9.594774-2.416968 18.200645-7.250977 25.817871-3.076187 5.053736-6.921363 9.30174-11.535644 12.74414-5.200221 3.955098-11.334193 6.665032-18.4021 8.129883-7.067906 1.464851-14.739949 2.197266-23.016357 2.197266h-73.388672v-161.938477zm134.472657 139.855957c9.155319 0 16.186498-3.259245 21.09375-9.777832 4.907251-6.518587 7.360839-15.783631 7.360839-27.79541s-2.453588-21.258513-7.360839-27.740479c-4.907252-6.481966-11.938431-9.7229-21.09375-9.7229-9.15532 0-16.20481 3.240934-21.148682 9.7229s-7.415772 15.7287-7.415772 27.740479 2.4719 21.276823 7.415772 27.79541 11.993362 9.777832 21.148682 9.777832zm61.303711-37.573242c0 17.578213-5.053661 32.611021-15.161133 45.098877-10.107473 12.487855-25.451558 18.731689-46.032715 18.731689-20.581158 0-35.925243-6.243834-46.032715-18.731689-10.107472-12.487856-15.161133-27.520664-15.161133-45.098877 0-17.285243 5.053661-32.26312 15.161133-44.934082s25.451557-19.006348 46.032715-19.006348c20.581157 0 35.925242 6.335386 46.032715 19.006348 10.107472 12.670962 15.161133 27.648839 15.161133 44.934082zm54.382324 59.655762h-31.311035v-161.938477h31.311035zm18.237304-96.350098v-22.302246h16.699219v-33.398438h30.981445v33.398438h19.445801v22.302246h-19.445801v63.28125c0 4.907251.622553 7.965082 1.867676 9.173584 1.245124 1.208502 5.053679 1.812744 11.425782 1.812744.952153 0 1.959223-.01831 3.02124-.054932 1.062017-.036621 2.105708-.091552 3.131103-.164794v23.400878l-14.831543.549317c-14.794996.512698-24.902316-2.050753-30.322265-7.69043-3.515643-3.588885-5.273438-9.118615-5.273438-16.589355v-73.718262z"
                      fill="#242f3c"></path>
                <path d="m519.059245 85.872233c.366213-4.467796-.292961-8.496076-1.977539-12.084961-2.490247-4.834008-7.434045-7.250976-14.831543-7.250976-10.546928 0-18.859833 5.236764-24.938965 15.710449-3.222672 5.566434-5.822744 12.963821-7.800293 22.192383-1.831064 8.789106-2.307133 15.856906-1.428223 21.203613 1.611336 9.960987 7.580515 14.941406 17.907715 14.941406 7.324256 0 12.945537-1.977519 16.864014-5.932617 3.918476-3.955098 6.866445-9.082 8.843994-15.380859h31.970215c-2.709975 9.521532-8.056601 18.530231-16.040039 27.026367-12.744205 13.696357-28.747463 20.544433-48.010254 20.544433-19.262792 0-32.208219-5.712833-38.83667-17.138672-6.628451-11.425838-8.001728-26.257233-4.119873-44.494628 4.321311-20.581158 12.725767-36.584416 25.213623-48.010254 12.487855-11.425839 27.557285-17.138672 45.20874-17.138672 15.014724 0 26.586874 3.369107 34.716797 10.107422s11.242685 18.640051 9.338379 35.705566zm223.791504-31.750488c2.417004 4.174825 3.588867 9.301727 3.515625 15.380859-.146485 4.028341-1.025383 9.924278-2.636719 17.687988l-16.259766 75.476075h-32.080078l16.149903-76.245118c.952153-4.541038 1.025394-8.276352.219726-11.206054-1.611336-5.566434-6.152306-8.34961-13.623047-8.34961-8.642621 0-15.380835 3.588832-20.214844 10.766602-2.490246 3.808613-4.321283 8.386204-5.493164 13.73291l-15.051269 71.30127h-31.530762l15.05127-71.30127c1.538093-7.104528 1.904301-12.26805 1.098633-15.490723-1.391609-5.786161-5.932579-8.679199-13.623047-8.679199-8.935592 0-15.563944 2.893038-19.885254 8.679199-2.343762 3.295915-4.211419 8.203093-5.603028 14.72168l-15.270996 72.070313h-31.750488l25.378418-119.53125h30.432129l-3.735352 17.468261c5.200222-6.225617 9.814433-10.656725 13.842774-13.293457 7.031285-4.687523 15.380811-7.03125 25.048828-7.03125 9.155319 0 16.149878 2.01414 20.983887 6.042481 3.73537 3.73537 6.152338 8.532685 7.250976 14.39209 5.566434-7.031285 11.755337-12.194808 18.566895-15.490723 7.104527-3.295915 14.611777-4.943848 22.521972-4.943848 5.273464 0 10.253883 1.025381 14.941407 3.076172 4.687523 2.050792 8.605941 5.639623 11.755371 10.766602zm46.032715 70.3125c-.512698 5.566434.109854 9.521472 1.867675 11.865234 2.929702 4.174826 9.631296 6.262207 20.104981 6.262207 6.152374 0 11.242655-.915518 15.270996-2.746582 4.02834-1.831064 6.445308-4.577618 7.250976-8.239746.732426-3.515643-.183092-6.188956-2.746582-8.020019-2.563489-1.831064-12.780672-4.980447-30.651855-9.448243-12.817447-3.369157-21.459939-7.580541-25.927734-12.634277-4.541039-4.980494-5.786143-12.158156-3.735352-21.533203 2.343762-11.059626 8.697458-20.562705 19.061279-28.509522 10.363822-7.946817 23.419111-11.920166 39.16626-11.920166 14.941481 0 26.47701 2.98459 34.606934 8.953858 8.129923 5.969268 11.352547 16.278003 9.667968 30.926513h-31.311035c.366213-4.02834-.109856-7.214343-1.428222-9.558105-2.56349-4.248068-7.983357-6.37207-16.259766-6.37207-6.811558 0-11.883528 1.062001-15.216064 3.186035-3.332537 2.124034-5.291746 4.614243-5.877686 7.470703-.805668 3.588885.183092 6.188957 2.966309 7.800293 2.709974 1.684579 12.963778 4.577616 30.761718 8.679199 11.792051 2.929702 20.178198 7.36081 25.158692 13.293457 4.907251 6.00589 6.408701 13.513139 4.504394 22.521973-2.563489 11.865294-9.045358 21.551476-19.445801 29.058838-10.400442 7.507362-24.829009 11.260986-43.286132 11.260986-18.823337 0-31.878626-3.973349-39.16626-11.920166s-9.649671-18.072448-7.086182-30.377197z"
                      fill="#0377fc"></path>
            </g>
            <g id="Group">
                <path d="m.178716 125.821284c0-69.035593 55.964406-125 125-125 69.035593 0 125 55.964407 125 125 0 69.035594-55.964407 125-125 125-69.035594 0-125-55.964406-125-125z"
                      fill="#0377fc" stroke-width="5"></path>
                <polygon id="Path" stroke-width="6" fill="#242F3C" fill-rule="nonzero" stroke-linejoin="bevel"
                         points="65.246269 185.753731 100.073269 219.516089 147.11552 207.69053 193.768076 194.410639 207.047961 147.758078 218.873525 100.715843 185.111157 65.888833 150.284165 32.126483 103.241908 43.952041 56.589357 57.231927 43.309472 103.884477 31.483903 150.926712"></polygon>
                <polygon id="Path" stroke-width="2" fill="#FFFFFF" fill-rule="nonzero"
                         points="60.020626 172.903239 87.540702 209.769961 133.373842 205.79082 179.061398 200.391094 198.531932 158.708866 216.699411 116.442423 190.336801 78.739325 162.816731 41.872611 116.983586 45.851751 71.296035 51.251473 51.825508 92.933696 33.65802 135.200132"></polygon>
                <path d="M87.178716,127.821284 C87.178716,105.729894 105.087326,87.821284 127.178716,87.821284 C149.270106,87.821284 167.178716,105.729894 167.178716,127.821284 C167.178716,149.912674 149.270106,167.821284 127.178716,167.821284 C105.087326,167.821284 87.178716,149.912674 87.178716,127.821284 Z"
                      id="Path" stroke-width="8"></path>
                <path d="M85.178716,125.821284 C85.178716,103.729894 103.087326,85.821284 125.178716,85.821284 C147.270106,85.821284 165.178716,103.729894 165.178716,125.821284 C165.178716,147.912674 147.270106,165.821284 125.178716,165.821284 C103.087326,165.821284 85.178716,147.912674 85.178716,125.821284 Z"
                      id="Path" stroke-width="2" fill="#3C5A7E" fill-rule="nonzero"></path>
            </g>
        </g>
    </g>
</svg>

<?xml version="1.0" encoding="UTF-8"?>
<svg width="1199px" height="256px" viewBox="0 0 1199 256" version="1.1" xmlns="http://www.w3.org/2000/svg" xmlns:xlink="http://www.w3.org/1999/xlink">
    <title>logo</title>
    <g id="Page-1" stroke="none" stroke-width="1" fill="none" fill-rule="evenodd">
        <g id="logo" transform="translate(3.000000, 2.000000)" stroke="#242F3C">
            <g id="Group" transform="translate(322.000000, 37.000000)" fill-rule="nonzero">
                <path d="M32.65446,28.85319 L32.65446,64.558757 L72.424967,64.558757 C79.529495,64.558757 85.29726,63.2221 89.728434,60.548747 C94.159609,57.875394 96.375163,53.133009 96.375163,46.321452 C96.375163,38.777469 93.445505,33.79705 87.5861,31.380046 C82.532364,29.695467 76.087116,28.85319 68.250163,28.85319 L32.65446,28.85319 Z M32.65446,91.365397 L32.65446,134.541667 L72.424967,134.541667 C79.529495,134.541667 85.059225,133.589528 89.014323,131.685221 C96.192093,128.169579 99.780924,121.431365 99.780924,111.470378 C99.780924,103.047484 96.301955,97.261409 89.343913,94.111979 C85.462057,92.354158 80.005569,91.43864 72.974284,91.365397 L32.65446,91.365397 Z M79.016764,0.72819 C98.865496,1.02116 112.927856,6.770615 121.204264,17.976725 C126.184758,24.861525 128.674967,33.101189 128.674967,42.695964 C128.674967,52.583708 126.184758,60.530406 121.204264,66.536296 C118.421047,69.905453 114.319526,72.981594 108.899577,75.764811 C117.175985,78.767756 123.419819,83.52845 127.631266,90.047038 C131.842713,96.565625 133.948405,104.475702 133.948405,113.777507 C133.948405,123.372281 131.531437,131.978152 126.697428,139.595378 C123.621241,144.649114 119.776065,148.897118 115.161784,152.339518 C109.961563,156.294616 103.827591,159.00455 96.759684,160.469401 C89.691778,161.934252 82.019735,162.666667 73.743327,162.666667 L0.354655,162.666667 L0.354655,0.72819 L79.016764,0.72819 Z M213.489421,140.584147 C222.64474,140.584147 229.675919,137.324902 234.583171,130.806315 C239.490422,124.287728 241.94401,115.022684 241.94401,103.010905 C241.94401,90.999126 239.490422,81.752392 234.583171,75.270426 C229.675919,68.78846 222.64474,65.547526 213.489421,65.547526 C204.334101,65.547526 197.284611,68.78846 192.340739,75.270426 C187.396867,81.752392 184.924967,90.999126 184.924967,103.010905 C184.924967,115.022684 187.396867,124.287728 192.340739,130.806315 C197.284611,137.324902 204.334101,140.584147 213.489421,140.584147 Z M274.793132,103.010905 C274.793132,120.589118 269.739471,135.621926 259.631999,148.109782 C249.524526,160.597637 234.180441,166.841471 213.599284,166.841471 C193.018126,166.841471 177.674041,160.597637 167.566569,148.109782 C157.459097,135.621926 152.405436,120.589118 152.405436,103.010905 C152.405436,85.725662 157.459097,70.747785 167.566569,58.076823 C177.674041,45.405861 193.018126,39.070475 213.599284,39.070475 C234.180441,39.070475 249.524526,45.405861 259.631999,58.076823 C269.739471,70.747785 274.793132,85.725662 274.793132,103.010905 Z M329.175456,162.666667 L297.864421,162.666667 L297.864421,0.72819 L329.175456,0.72819 L329.175456,162.666667 Z M347.41276,66.316569 L347.41276,44.014323 L364.111979,44.014323 L364.111979,10.615885 L395.093424,10.615885 L395.093424,44.014323 L414.539225,44.014323 L414.539225,66.316569 L395.093424,66.316569 L395.093424,129.597819 C395.093424,134.50507 395.715977,137.562901 396.9611,138.771403 C398.206224,139.979905 402.014779,140.584147 408.386882,140.584147 C409.339035,140.584147 410.346105,140.565837 411.408122,140.529215 C412.470139,140.492594 413.51383,140.437663 414.539225,140.364421 L414.539225,163.765299 L399.707682,164.314616 C384.912686,164.827314 374.805366,162.263863 369.385417,156.624186 C365.869774,153.035301 364.111979,147.505571 364.111979,140.034831 L364.111979,66.316569 L347.41276,66.316569 Z" id="Shape" fill="#242F3C"></path>
                <path d="M519.059245,85.872233 C519.425458,81.404437 518.766284,77.376157 517.081706,73.787272 C514.591459,68.953264 509.647661,66.536296 502.250163,66.536296 C491.703235,66.536296 483.39033,71.77306 477.311198,82.246745 C474.088526,87.813179 471.488454,95.210566 469.510905,104.439128 C467.679841,113.228234 467.203772,120.296034 468.082682,125.642741 C469.694018,135.603728 475.663197,140.584147 485.990397,140.584147 C493.314653,140.584147 498.935934,138.606628 502.854411,134.65153 C506.772887,130.696432 509.720856,125.56953 511.698405,119.270671 L543.66862,119.270671 C540.958645,128.792203 535.612019,137.800902 527.628581,146.297038 C514.884376,159.993395 498.881118,166.841471 479.618327,166.841471 C460.355535,166.841471 447.410108,161.128638 440.781657,149.702799 C434.153206,138.276961 432.779929,123.445566 436.661784,105.208171 C440.983095,84.627013 449.387551,68.623755 461.875407,57.197917 C474.363262,45.772078 489.432692,40.059245 507.084147,40.059245 C522.098871,40.059245 533.671021,43.428352 541.800944,50.166667 C549.930867,56.904982 553.043629,68.806718 551.139323,85.872233 L519.059245,85.872233 Z M742.850749,54.121745 C745.267753,58.29657 746.439616,63.423472 746.366374,69.502604 C746.219889,73.530945 745.340991,79.426882 743.729655,87.190592 L727.469889,162.666667 L695.389811,162.666667 L711.539714,86.421549 C712.491867,81.880511 712.565108,78.145197 711.75944,75.215495 C710.148104,69.649061 705.607134,66.865885 698.136393,66.865885 C689.493772,66.865885 682.755558,70.454717 677.921549,77.632487 C675.431303,81.4411 673.600266,86.018691 672.428385,91.365397 L657.377116,162.666667 L625.846354,162.666667 L640.897624,91.365397 C642.435717,84.260869 642.801925,79.097347 641.996257,75.874674 C640.604648,70.088513 636.063678,67.195475 628.37321,67.195475 C619.437618,67.195475 612.809266,70.088513 608.487956,75.874674 C606.144194,79.170589 604.276537,84.077767 602.884928,90.596354 L587.613932,162.666667 L555.863444,162.666667 L581.241862,43.135417 L611.673991,43.135417 L607.938639,60.603678 C613.138861,54.378061 617.753072,49.946953 621.781413,47.310221 C628.812698,42.622698 637.162224,40.278971 646.830241,40.278971 C655.98556,40.278971 662.980119,42.293111 667.814128,46.321452 C671.549498,50.056822 673.966466,54.854137 675.065104,60.713542 C680.631538,53.682257 686.820441,48.518734 693.631999,45.222819 C700.736526,41.926904 708.243776,40.278971 716.153971,40.278971 C721.427435,40.278971 726.407854,41.304352 731.095378,43.355143 C735.782901,45.405935 739.701319,48.994766 742.850749,54.121745 Z M788.883464,124.434245 C788.370766,130.000679 788.993318,133.955717 790.751139,136.299479 C793.680841,140.474305 800.382435,142.561686 810.85612,142.561686 C817.008494,142.561686 822.098775,141.646168 826.127116,139.815104 C830.155456,137.98404 832.572424,135.237486 833.378092,131.575358 C834.110518,128.059715 833.195,125.386402 830.63151,123.555339 C828.068021,121.724275 817.850838,118.574892 799.979655,114.107096 C787.162208,110.737939 778.519716,106.526555 774.051921,101.472819 C769.510882,96.492325 768.265778,89.314663 770.316569,79.939616 C772.660331,68.87999 779.014027,59.376911 789.377848,51.430094 C799.74167,43.483277 812.796959,39.509928 828.544108,39.509928 C843.485589,39.509928 855.021118,42.494518 863.151042,48.463786 C871.280965,54.433054 874.503589,64.741789 872.81901,79.390299 L841.507975,79.390299 C841.874188,75.361959 841.398119,72.175956 840.079753,69.832194 C837.516263,65.584126 832.096396,63.460124 823.819987,63.460124 C817.008429,63.460124 811.936459,64.522125 808.603923,66.646159 C805.271386,68.770193 803.312177,71.260402 802.726237,74.116862 C801.920569,77.705747 802.909329,80.305819 805.692546,81.917155 C808.40252,83.601734 818.656324,86.494771 836.454264,90.596354 C848.246315,93.526056 856.632462,97.957164 861.612956,103.889811 C866.520207,109.895701 868.021657,117.40295 866.11735,126.411784 C863.553861,138.277078 857.071992,147.96326 846.671549,155.470622 C836.271107,162.977984 821.84254,166.731608 803.385417,166.731608 C784.56208,166.731608 771.506791,162.758259 764.219157,154.811442 C756.931523,146.864625 754.569486,136.738994 757.132975,124.434245 L788.883464,124.434245 Z" id="Shape" fill="#507AAD"></path>
            </g>
            <g id="Group">
                <path d="M0.178716,125.821284 C0.178716,56.785691 56.143122,0.821284 125.178716,0.821284 C194.214309,0.821284 250.178716,56.785691 250.178716,125.821284 C250.178716,194.856878 194.214309,250.821284 125.178716,250.821284 C56.143122,250.821284 0.178716,194.856878 0.178716,125.821284 Z" id="Path" stroke-width="5" fill="#3C5A7E" fill-rule="nonzero"></path>
                <polygon id="Path" stroke-width="6" fill="#242F3C" fill-rule="nonzero" stroke-linejoin="bevel" points="65.246269 185.753731 100.073269 219.516089 147.11552 207.69053 193.768076 194.410639 207.047961 147.758078 218.873525 100.715843 185.111157 65.888833 150.284165 32.126483 103.241908 43.952041 56.589357 57.231927 43.309472 103.884477 31.483903 150.926712"></polygon>
                <polygon id="Path" stroke-width="2" fill="#FFFFFF" fill-rule="nonzero" points="60.020626 172.903239 87.540702 209.769961 133.373842 205.79082 179.061398 200.391094 198.531932 158.708866 216.699411 116.442423 190.336801 78.739325 162.816731 41.872611 116.983586 45.851751 71.296035 51.251473 51.825508 92.933696 33.65802 135.200132"></polygon>
                <path d="M87.178716,127.821284 C87.178716,105.729894 105.087326,87.821284 127.178716,87.821284 C149.270106,87.821284 167.178716,105.729894 167.178716,127.821284 C167.178716,149.912674 149.270106,167.821284 127.178716,167.821284 C105.087326,167.821284 87.178716,149.912674 87.178716,127.821284 Z" id="Path" stroke-width="8"></path>
                <path d="M85.178716,125.821284 C85.178716,103.729894 103.087326,85.821284 125.178716,85.821284 C147.270106,85.821284 165.178716,103.729894 165.178716,125.821284 C165.178716,147.912674 147.270106,165.821284 125.178716,165.821284 C103.087326,165.821284 85.178716,147.912674 85.178716,125.821284 Z" id="Path" stroke-width="2" fill="#3C5A7E" fill-rule="nonzero"></path>
            </g>
        </g>
    </g>
</svg>
